lib/images/card-logo-amex.svg

<?xml version="1.0"?>
<svg height="100px" version="1.1" viewBox="0 0 160 100" width="160px" xmlns="http://www.w3.org/2000/svg" xmlns:sketch="http://www.bohemiancoding.com/sketch/ns" xmlns:xlink="http://www.w3.org/1999/xlink">
    <title />
    <defs />
    <g fill="none" fill-rule="evenodd" id="Page-1" stroke="none" stroke-width="1">
        <g id="american-express" transform="translate(-1.000000, 0.000000)">
            <path d="M149,1.01146687e-06 C141,1.76644588e-06 56.3007812,-1.60318373e-06 9,1.01146687e-06 C5,1.23257532e-06 1,4.00000101 1,8.00000101 L1,88.000001 C0.999999537,96.000001 5,100.000001 13,100.000001 C57.6232096,100.000001 141,100.000002 149,100.000001 C157,100.000001 161,96.000001 161,88.000001 L161,12.000001 C161,4.00000101 157,1.01146687e-06 149,1.01146687e-06 Z M149,1.01146687e-06" fill="#306FC5" id="Rectangle-1" />
            <path d="M14.5198284,36.625336 L11.4210462,29.0743396 L8.33997461,36.625336 L14.5198284,36.625336 Z M82.7855885,33.6185346 C82.1634325,33.9961701 81.427586,34.0087389 80.5460556,34.0087389 L75.04606,34.0087389 L75.04606,29.8016165 L80.6208972,29.8016165 C81.4098754,29.8016165 82.2331323,29.8370377 82.7678779,30.1432595 C83.3551839,30.419202 83.7185367,31.006508 83.7185367,31.8177674 C83.7185367,32.6455947 83.3728945,33.3117414 82.7855885,33.6185346 C82.7855885,33.6185346 83.3728945,33.3117414 82.7855885,33.6185346 L82.7855885,33.6185346 L82.7855885,33.6185346 Z M122.021975,36.625336 L118.888915,29.0743396 L115.772993,36.625336 L122.021975,36.625336 L122.021975,36.625336 L122.021975,36.625336 L122.021975,36.625336 Z M48.8829461,44.7984882 L44.2416286,44.7984882 L44.2244893,29.9638684 L37.659573,44.7984882 L33.6844022,44.7984882 L27.1023466,29.9507282 L27.1023466,44.7984882 L17.8939817,44.7984882 L16.1543446,40.5736552 L6.72773948,40.5736552 L4.97039177,44.7984882 L0.0531317741,44.7984882 L8.16058346,25.8572964 L14.8871803,25.8572964 L22.5872884,43.7906984 L22.5872884,25.8572964 L29.9766042,25.8572964 L35.9016539,38.7066161 L41.3445186,25.8572964 L48.8823748,25.8572964 L48.8823748,44.7984882 L48.8823748,44.7984882 L48.8829461,44.7984882 L48.8829461,44.7984882 Z M67.3813731,44.7984882 L52.2570994,44.7984882 L52.2570994,25.8572964 L67.3813731,25.8572964 L67.3813731,29.8016165 L56.7847264,29.8016165 L56.7847264,33.2157615 L67.1271405,33.2157615 L67.1271405,37.0983801 L56.7847264,37.0983801 L56.7847264,40.8810197 L67.3813731,40.8810197 L67.3813731,44.7984882 L67.3813731,44.7984882 L67.3813731,44.7984882 L67.3813731,44.7984882 Z M88.7060678,30.958518 C88.7060678,33.9784595 86.6904882,35.5387055 85.5158761,36.0071792 C86.5065266,36.3842434 87.3526358,37.0503901 87.7554089,37.602275 C88.3947041,38.5443642 88.5049669,39.385903 88.5049669,41.0775501 L88.5049669,44.7984882 L83.9384908,44.7984882 L83.9213516,42.4098436 C83.9213516,41.2700814 84.0304716,39.6309947 83.2066435,38.7197562 C82.5450672,38.0536095 81.5367061,37.9090682 79.9067604,37.9090682 L75.0466313,37.9090682 L75.0466313,44.7984882 L70.5195757,44.7984882 L70.5195757,25.8572964 L80.9328321,25.8572964 C83.2466352,25.8572964 84.9514224,25.9184265 86.4151171,26.7645357 C87.8473897,27.6106449 88.7060678,28.8458159 88.7060678,30.958518 C88.7060678,30.958518 88.7060678,28.8458159 88.7060678,30.958518 L88.7060678,30.958518 L88.7060678,30.958518 Z M95.9514136,44.7984882 L91.3318058,44.7984882 L91.3318058,25.8572964 L95.9514136,25.8572964 L95.9514136,44.7984882 L95.9514136,44.7984882 L95.9514136,44.7984882 L95.9514136,44.7984882 Z M149.544806,44.7984882 L143.129001,44.7984882 L134.547363,30.5820251 L134.547363,44.7984882 L125.327,44.7984882 L123.565082,40.5736552 L114.160187,40.5736552 L112.450829,44.7984882 L107.153077,44.7984882 C104.952393,44.7984882 102.166117,44.3117326 100.588161,42.7034967 C98.997064,41.0952607 98.1692367,38.916858 98.1692367,35.4724336 C98.1692367,32.6633053 98.6639906,30.0952695 100.60987,28.0659785 C102.073565,26.5542939 104.365658,25.8572964 107.485579,25.8572964 L111.868665,25.8572964 L111.868665,29.9158784 L107.57756,29.9158784 C105.925333,29.9158784 104.992385,30.1615414 104.093715,31.03793 C103.321876,31.835478 102.792272,33.3431635 102.792272,35.3284636 C102.792272,37.3577546 103.195617,38.820878 104.037155,39.7766786 C104.734153,40.5262365 106.000746,40.7536177 107.192497,40.7536177 L109.225787,40.7536177 L115.606742,25.8578677 L122.39047,25.8578677 L130.055728,43.7735592 L130.055728,25.8578677 L136.949147,25.8578677 L144.907487,39.0494017 L144.907487,25.8578677 L149.544806,25.8578677 L149.544806,44.7984882 L149.544806,44.7984882 L149.544806,44.7984882 L149.544806,44.7984882 Z M0.000571309399,48.518855 L7.73610057,48.518855 L9.48030817,44.3117326 L13.3852079,44.3117326 L15.124845,48.518855 L30.3450987,48.518855 L30.3450987,45.3023831 L31.7036725,48.5325664 L39.6048815,48.5325664 L40.9634552,45.2543931 L40.9634552,48.518855 L78.7887079,48.518855 L78.7709973,41.612867 L79.5028447,41.612867 C80.0153092,41.6305776 80.1649923,41.6779963 80.1649923,42.5241055 L80.1649923,48.518855 L99.72834,48.518855 L99.72834,46.9111904 C101.306297,47.7567283 103.760642,48.518855 106.990254,48.518855 L115.220537,48.518855 L116.981884,44.3117326 L120.886784,44.3117326 L122.609281,48.518855 L138.469402,48.518855 L138.469402,44.5225458 L140.871186,48.518855 L153.580535,48.518855 L153.580535,22.1015084 L141.002588,22.1015084 L141.002588,25.221429 L139.241241,22.1015084 L126.33479,22.1015084 L126.33479,25.221429 L124.717413,22.1015084 L107.283907,22.1015084 C104.365658,22.1015084 101.800479,22.508852 99.72834,23.6440438 L99.72834,22.1015084 L87.6977067,22.1015084 L87.6977067,23.6440438 C86.3791246,22.4740021 84.5823565,22.1015084 82.5844876,22.1015084 L38.6319416,22.1015084 L35.6828424,28.9246566 L32.6543313,22.1015084 L18.810362,22.1015084 L18.810362,25.221429 L17.2895363,22.1015084 L5.4828563,22.1015084 L0,34.6617456 L0,48.518855 L0.000571309399,48.518855 Z M161.039551,62.4668027 L152.788129,62.4668027 C151.964301,62.4668027 151.416987,62.4976534 150.95594,62.809017 C150.478325,63.1158102 150.294364,63.5711438 150.294364,64.1721612 C150.294364,64.8868693 150.697708,65.3730536 151.284443,65.5832955 C151.762057,65.7495465 152.275093,65.7981078 153.029222,65.7981078 L155.482996,65.8638084 C157.959051,65.9249385 159.611849,66.350564 160.619638,67.3886332 C160.803029,67.5331744 160.913291,67.6954263 161.039551,67.8576782 L161.039551,62.4668027 Z M161.039551,74.9573401 C159.93978,76.565576 157.796799,77.3808346 154.89569,77.3808346 L146.15237,77.3808346 L146.15237,73.3182534 L154.860268,73.3182534 C155.724088,73.3182534 156.328533,73.2045628 156.692458,72.8492084 C157.00782,72.5561267 157.227774,72.1305012 157.227774,71.6134662 C157.227774,71.0615813 157.00782,70.623387 156.674747,70.3605847 C156.346244,70.0715021 155.868058,69.9401009 155.079651,69.9401009 C150.828538,69.7955597 145.525073,70.0715021 145.525073,64.0761813 C145.525073,61.3281831 147.269852,58.4356436 152.020861,58.4356436 L161.038979,58.4356436 L161.038979,54.6661442 L152.660156,54.6661442 C150.13154,54.6661442 148.294781,55.2717321 146.993909,56.21325 L146.993909,54.6661442 L134.600494,54.6661442 C132.618622,54.6661442 130.29225,55.1574702 129.191908,56.21325 L129.191908,54.6661442 L107.060525,54.6661442 L107.060525,56.21325 C105.299178,54.9426579 102.327226,54.6661442 100.955513,54.6661442 L86.3574148,54.6661442 L86.3574148,56.21325 C84.9639912,54.8638172 81.865209,54.6661442 79.9764602,54.6661442 L63.6387253,54.6661442 L59.9000766,58.7121573 L56.3985213,54.6661442 L31.9933263,54.6661442 L31.9933263,81.1017727 L55.9391885,81.1017727 L59.7915278,76.9917729 L63.4204851,81.1017727 L78.1808347,81.1149128 L78.1808347,74.89621 L79.6319606,74.89621 C81.5904092,74.9264894 83.9002131,74.8476487 85.9380737,73.9666896 L85.9380737,81.1012014 L98.112677,81.1012014 L98.112677,74.21121 L98.6999831,74.21121 C99.449541,74.21121 99.5232399,74.2420607 99.5232399,74.9910473 L99.5232399,81.1006301 L136.507525,81.1006301 C138.855607,81.1006301 141.309952,80.4996126 142.669097,79.4089829 L142.669097,81.1006301 L154.400364,81.1006301 C156.841569,81.1006301 159.225643,80.7584157 161.039551,79.8820271 L161.039551,74.9573401 L161.039551,74.9573401 L161.039551,74.9573401 L161.039551,74.9573401 Z M142.979889,67.3886332 C143.86142,68.3010143 144.333893,69.452774 144.333893,71.402653 C144.333893,75.4783743 141.787567,77.3808346 137.221662,77.3808346 L128.403501,77.3808346 L128.403501,73.3182534 L137.186241,73.3182534 C138.044919,73.3182534 138.653935,73.2045628 139.035569,72.8492084 C139.346933,72.5561267 139.570315,72.1305012 139.570315,71.6134662 C139.570315,71.0615813 139.328651,70.623387 139.017859,70.3605847 C138.671645,70.0715021 138.194031,69.9401009 137.405624,69.9401009 C133.17165,69.7955597 127.869327,70.0715021 127.869327,64.0761813 C127.869327,61.3281831 129.595824,58.4356436 134.342263,58.4356436 L143.418655,58.4356436 L143.418655,62.4679453 L135.11353,62.4679453 C134.290273,62.4679453 133.754957,62.498796 133.299623,62.8101596 C132.803726,63.1169528 132.619765,63.5722864 132.619765,64.1733039 C132.619765,64.8880119 133.04082,65.3741962 133.610415,65.5844381 C134.08803,65.7506891 134.601066,65.7992504 135.372333,65.7992504 L137.809539,65.864951 C140.267312,65.9249385 141.954389,66.3499927 142.979889,67.3886332 C142.979889,67.3886332 141.954389,66.3499927 142.979889,67.3886332 L142.979889,67.3886332 L142.979889,67.3886332 Z M102.126697,66.2185915 C101.521109,66.5779451 100.772122,66.6087958 99.8911632,66.6087958 L94.3911676,66.6087958 L94.3911676,62.3536834 L99.9660047,62.3536834 C100.772122,62.3536834 101.578811,62.3708227 102.126697,62.6958978 C102.713432,63.0026909 103.064216,63.5894257 103.064216,64.4001137 C103.064216,65.2108017 102.713432,65.8638084 102.126697,66.2185915 C102.126697,66.2185915 102.713432,65.8638084 102.126697,66.2185915 L102.126697,66.2185915 L102.126697,66.2185915 Z M104.860984,68.5763854 C105.868773,68.9483078 106.692602,69.6150259 107.078807,70.1669108 C107.718102,71.0918607 107.810654,71.9551092 107.828936,73.6250466 L107.828936,77.3808346 L103.283598,77.3808346 L103.283598,75.0104719 C103.283598,73.8707096 103.39329,72.1830616 102.551751,71.3021025 C101.890175,70.623387 100.881814,70.4611351 99.2301582,70.4611351 L94.3917389,70.4611351 L94.3917389,77.3808346 L89.8424022,77.3808346 L89.8424022,58.4350723 L100.295079,58.4350723 C102.587172,58.4350723 104.256538,58.536194 105.742514,59.3291715 C107.171359,60.19242 108.070029,61.3750304 108.070029,63.5362939 C108.069457,66.5602345 106.052735,68.1033412 104.860984,68.5763854 C104.860984,68.5763854 106.052735,68.1033412 104.860984,68.5763854 L104.860984,68.5763854 L104.860984,68.5763854 Z M110.580362,58.4350723 L125.690924,58.4350723 L125.690924,62.3531121 L115.089136,62.3531121 L115.089136,65.7975365 L125.432121,65.7975365 L125.432121,69.6630159 L115.089136,69.6630159 L115.089136,73.4325153 L125.690924,73.4496546 L125.690924,77.3808346 L110.580362,77.3808346 L110.580362,58.4350723 L110.580362,58.4350723 L110.580362,58.4350723 L110.580362,58.4350723 Z M80.0341624,67.1783913 L74.1833828,67.1783913 L74.1833828,62.3536834 L80.0867229,62.3536834 C81.7212391,62.3536834 82.8558595,63.0198302 82.8558595,64.6766274 C82.8558595,66.3151428 81.7737995,67.1783913 80.0341624,67.1783913 L80.0341624,67.1783913 L80.0341624,67.1783913 L80.0341624,67.1783913 Z M69.6740378,75.6577654 L62.7229163,67.940518 L69.6740378,60.4683624 L69.6740378,75.6577654 L69.6740378,75.6577654 L69.6740378,75.6577654 L69.6740378,75.6577654 Z M51.7229251,73.4325153 L40.5915328,73.4325153 L40.5915328,69.6630159 L50.5311737,69.6630159 L50.5311737,65.7975365 L40.5915328,65.7975365 L40.5915328,62.3531121 L51.9423079,62.3531121 L56.8944178,67.8742462 L51.7229251,73.4325153 L51.7229251,73.4325153 L51.7229251,73.4325153 L51.7229251,73.4325153 Z M87.7165599,64.6766274 C87.7165599,69.9395296 83.7899504,71.0261601 79.8324902,71.0261601 L74.1833828,71.0261601 L74.1833828,77.3808346 L65.3835042,77.3808346 L59.8086671,71.109 L54.0150184,77.3808346 L36.0816164,77.3808346 L36.0816164,58.4350723 L54.2909609,58.4350723 L59.8612275,64.6452054 L65.6200263,58.4350723 L80.0867229,58.4350723 C83.6796877,58.4350723 87.7165599,59.4297219 87.7165599,64.6766274 C87.7165599,64.6766274 87.7165599,59.4297219 87.7165599,64.6766274 L87.7165599,64.6766274 L87.7165599,64.6766274 Z M87.7165599,64.6766274" fill="#FFFFFF" id="Shape" />
        </g>
    </g>
</svg>

<?xml version="1.0" encoding="UTF-8" standalone="no"?>
<svg
   xmlns:dc="http://purl.org/dc/elements/1.1/"
   xmlns:cc="http://creativecommons.org/ns#"
   xmlns:rdf="http://www.w3.org/1999/02/22-rdf-syntax-ns#"
   xmlns:svg="http://www.w3.org/2000/svg"
   xmlns="http://www.w3.org/2000/svg"
   xmlns:sodipodi="http://sodipodi.sourceforge.net/DTD/sodipodi-0.dtd"
   xmlns:inkscape="http://www.inkscape.org/namespaces/inkscape"
   height="100px"
   version="1.1"
   viewBox="0 0 160 100"
   width="160px"
   id="svg2"
   inkscape:version="0.91 r13725"
   sodipodi:docname="card-logo-amex.svg"
   inkscape:export-filename="/home/rafael/github/controlle_assets/lib/images/amex2.png"
   inkscape:export-xdpi="90"
   inkscape:export-ydpi="90">
  <metadata
     id="metadata14">
    <rdf:RDF>
      <cc:Work
         rdf:about="">
        <dc:format>image/svg+xml</dc:format>
        <dc:type
           rdf:resource="http://purl.org/dc/dcmitype/StillImage" />
      </cc:Work>
    </rdf:RDF>
  </metadata>
  <sodipodi:namedview
     pagecolor="#ffffff"
     bordercolor="#666666"
     borderopacity="1"
     objecttolerance="10"
     gridtolerance="10"
     guidetolerance="10"
     inkscape:pageopacity="0"
     inkscape:pageshadow="2"
     inkscape:window-width="1301"
     inkscape:window-height="744"
     id="namedview12"
     showgrid="false"
     inkscape:zoom="1.8375"
     inkscape:cx="-43.809524"
     inkscape:cy="50"
     inkscape:window-x="65"
     inkscape:window-y="24"
     inkscape:window-maximized="1"
     inkscape:current-layer="svg2" />
  <title
     id="title4" />
  <defs
     id="defs6" />
  <rect
     style="fill:#306fc5;fill-opacity:1"
     id="rect3342"
     width="161.63266"
     height="101.22449"
     x="-1.0884435"
     y="-1.2244898" />
  <g
     style="fill:none;fill-rule:evenodd;stroke:none;stroke-width:1"
     transform="matrix(0.85130623,0,0,0.86938776,12.912528,3.4421773)"
     id="g3344">
    <g
       transform="translate(-1,0)"
       id="g3346">
      <path
         style="fill:#306fc5"
         inkscape:connector-curvature="0"
         id="path3348"
         d="m 149,1.0114669e-6 c -8,7.54979e-7 -92.699219,-2.6146506e-6 -140,0 C 5,1.2325753e-6 1,4.000001 1,8.000001 l 0,80 c -4.6e-7,8 4,11.999999 12,11.999999 44.62321,0 128,0 136,0 8,0 12,-3.999999 12,-11.999999 l 0,-76 C 161,4.000001 157,1.0114669e-6 149,1.0114669e-6 Z m 0,0" />
      <path
         style="fill:#ffffff"
         inkscape:connector-curvature="0"
         id="path3350"
         d="m 14.519828,36.625336 -3.098782,-7.550996 -3.0810714,7.550996 6.1798534,0 z m 68.265761,-3.006801 c -0.622157,0.377635 -1.358003,0.390204 -2.239533,0.390204 l -5.499996,0 0,-4.207122 5.574837,0 c 0.788978,0 1.612235,0.03542 2.146981,0.341642 0.587306,0.275943 0.950659,0.863249 0.950659,1.674508 0,0.827828 -0.345643,1.493974 -0.932948,1.800768 0,0 0.587305,-0.306794 0,0 l 0,0 0,0 z m 39.236381,3.006801 -3.13306,-7.550996 -3.11592,7.550996 6.24898,0 0,0 0,0 0,0 z m -73.139024,8.173152 -4.641317,0 -0.01714,-14.83462 -6.564916,14.83462 -3.975171,0 -6.582055,-14.84776 0,14.84776 -9.208365,0 -1.739637,-4.224833 -9.4266055,0 -1.7573477,4.224833 -4.91726003,0 8.10745173,-18.941192 6.7265965,0 7.700108,17.933402 0,-17.933402 7.389316,0 5.92505,12.84932 5.442865,-12.84932 7.537856,0 0,18.941192 0,0 5.71e-4,0 0,0 z m 18.498427,0 -15.124274,0 0,-18.941192 15.124274,0 0,3.944321 -10.596647,0 0,3.414144 10.342414,0 0,3.882619 -10.342414,0 0,3.78264 10.596647,0 0,3.917468 0,0 0,0 0,0 z m 21.324695,-13.83997 c 0,3.019941 -2.01558,4.580187 -3.190192,5.048661 0.990651,0.377064 1.83676,1.043211 2.239533,1.595096 0.639295,0.942089 0.749558,1.783628 0.749558,3.475275 l 0,3.720938 -4.566476,0 -0.01714,-2.388644 c 0,-1.139763 0.10912,-2.778849 -0.714709,-3.690088 -0.661576,-0.666147 -1.669937,-0.810688 -3.299883,-0.810688 l -4.860129,0 0,6.88942 -4.527055,0 0,-18.941192 10.413256,0 c 2.313803,0 4.01859,0.06113 5.482285,0.90724 1.432273,0.846109 2.290951,2.08128 2.290951,4.193982 0,0 0,-2.112702 0,0 l 0,0 0,0 z m 7.245346,13.83997 -4.619608,0 0,-18.941192 4.619608,0 0,18.941192 0,0 0,0 0,0 z m 53.593396,0 -6.41581,0 -8.58164,-14.216463 0,14.216463 -9.22036,0 -1.76192,-4.224833 -9.40489,0 -1.70936,4.224833 -5.29775,0 c -2.20069,0 -4.98696,-0.486755 -6.56492,-2.094991 -1.591096,-1.608236 -2.418923,-3.786639 -2.418923,-7.231063 0,-2.809129 0.494754,-5.377165 2.440633,-7.406456 1.4637,-1.511684 3.75579,-2.208682 6.87571,-2.208682 l 4.38308,0 0,4.058582 -4.2911,0 c -1.65223,0 -2.58517,0.245663 -3.48384,1.122052 -0.77184,0.797548 -1.30145,2.305234 -1.30145,4.290534 0,2.029291 0.40335,3.492414 1.24489,4.448215 0.69699,0.749558 1.96359,0.976939 3.15534,0.976939 l 2.03329,0 6.38095,-14.89575 6.78373,0 7.66526,17.915691 0,-17.915691 6.89342,0 7.95834,13.191534 0,-13.191534 4.63732,0 0,18.94062 0,0 0,0 0,0 z M 5.713094e-4,48.518855 l 7.7355292906,0 1.7442076,-4.207122 3.9048998,0 1.739637,4.207122 15.220254,0 0,-3.216472 1.358573,3.230183 7.901209,0 1.358574,-3.278173 0,3.264462 37.825253,0 -0.01771,-6.905988 0.731848,0 c 0.512464,0.01771 0.662147,0.06513 0.662147,0.911238 l 0,5.99475 19.563348,0 0,-1.607665 c 1.577959,0.845538 4.032299,1.607665 7.261909,1.607665 l 8.23029,0 1.76134,-4.207122 3.9049,0 1.7225,4.207122 15.86012,0 0,-3.996309 2.40179,3.996309 12.70934,0 0,-26.417347 -12.57794,0 0,3.119921 -1.76135,-3.119921 -12.90645,0 0,3.119921 -1.61738,-3.119921 -17.4335,0 c -2.91825,0 -5.48343,0.407344 -7.555569,1.542536 l 0,-1.542536 -12.030633,0 0,1.542536 c -1.318582,-1.170042 -3.11535,-1.542536 -5.113219,-1.542536 l -43.952546,0 -2.9491,6.823149 -3.028511,-6.823149 -13.843969,0 0,3.119921 -1.520826,-3.119921 -11.8066797,0 L 0,34.661746 l 0,13.857109 5.713094e-4,0 z M 161.03955,62.466803 l -8.25142,0 c -0.82383,0 -1.37114,0.03085 -1.83219,0.342214 -0.47762,0.306793 -0.66158,0.762127 -0.66158,1.363144 0,0.714708 0.40335,1.200893 0.99008,1.411135 0.47762,0.16625 0.99065,0.214812 1.74478,0.214812 l 2.45378,0.0657 c 2.47605,0.06113 4.12885,0.486756 5.13664,1.524825 0.18339,0.144541 0.29365,0.306793 0.41991,0.469045 l 0,-5.390875 z m 0,12.490537 c -1.09977,1.608236 -3.24275,2.423495 -6.14386,2.423495 l -8.74332,0 0,-4.062582 8.7079,0 c 0.86382,0 1.46826,-0.11369 1.83219,-0.469045 0.31536,-0.293081 0.53531,-0.718707 0.53531,-1.235742 0,-0.551885 -0.21995,-0.990079 -0.55302,-1.252881 -0.32851,-0.289083 -0.80669,-0.420484 -1.5951,-0.420484 -4.25111,-0.144541 -9.55458,0.131401 -9.55458,-5.86392 0,-2.747998 1.74478,-5.640537 6.49579,-5.640537 l 9.01812,0 0,-3.7695 -8.37882,0 c -2.52862,0 -4.36538,0.605588 -5.66625,1.547106 l 0,-1.547106 -12.39342,0 c -1.98187,0 -4.30824,0.491326 -5.40858,1.547106 l 0,-1.547106 -22.13139,0 0,1.547106 c -1.76134,-1.270592 -4.73329,-1.547106 -6.10501,-1.547106 l -14.598095,0 0,1.547106 C 84.963991,54.863817 81.865209,54.666144 79.97646,54.666144 l -16.337735,0 -3.738648,4.046013 -3.501556,-4.046013 -24.405195,0 0,26.435629 23.945862,0 3.85234,-4.11 3.628957,4.11 14.76035,0.01314 0,-6.218703 1.451126,0 c 1.958448,0.03028 4.268252,-0.04856 6.306113,-0.92952 l 0,7.134511 12.174603,0 0,-6.889991 0.587306,0 c 0.749558,0 0.823257,0.03085 0.823257,0.779837 l 0,6.109583 36.98428,0 c 2.34809,0 4.80243,-0.601017 6.16158,-1.691647 l 0,1.691647 11.73126,0 c 2.44121,0 4.82528,-0.342214 6.63919,-1.218603 l 0,-4.924687 0,0 0,0 0,0 z m -18.05966,-7.568707 c 0.88153,0.912381 1.354,2.064141 1.354,4.01402 0,4.075721 -2.54632,5.978182 -7.11223,5.978182 l -8.81816,0 0,-4.062582 8.78274,0 c 0.85868,0 1.46769,-0.11369 1.84933,-0.469045 0.31136,-0.293081 0.53474,-0.718707 0.53474,-1.235742 0,-0.551885 -0.24166,-0.990079 -0.55245,-1.252881 -0.34622,-0.289083 -0.82383,-0.420484 -1.61224,-0.420484 -4.23397,-0.144541 -9.53629,0.131401 -9.53629,-5.86392 0,-2.747998 1.72649,-5.640537 6.47293,-5.640537 l 9.07639,0 0,4.032301 -8.30512,0 c -0.82326,0 -1.35857,0.03085 -1.81391,0.342215 -0.49589,0.306793 -0.67986,0.762126 -0.67986,1.363144 0,0.714708 0.42106,1.200892 0.99065,1.411134 0.47762,0.166251 0.99066,0.214812 1.76192,0.214812 l 2.43721,0.0657 c 2.45777,0.05999 4.14485,0.485042 5.17035,1.523682 0,0 -1.0255,-1.03864 0,0 l 0,0 0,0 z M 102.1267,66.218592 c -0.60559,0.359353 -1.35458,0.390204 -2.235537,0.390204 l -5.499995,0 0,-4.255113 5.574837,0 c 0.806115,0 1.612805,0.01714 2.160695,0.342215 0.58673,0.306793 0.93752,0.893528 0.93752,1.704216 0,0.810688 -0.35079,1.463694 -0.93752,1.818478 0,0 0.58673,-0.354784 0,0 l 0,0 0,0 z m 2.73428,2.357793 c 1.00779,0.371923 1.83162,1.038641 2.21783,1.590526 0.63929,0.92495 0.73184,1.788198 0.75013,3.458136 l 0,3.755788 -4.54534,0 0,-2.370363 c 0,-1.139762 0.10969,-2.82741 -0.73185,-3.708369 -0.66157,-0.678716 -1.66994,-0.840968 -3.321592,-0.840968 l -4.838419,0 0,6.9197 -4.549337,0 0,-18.945763 10.452678,0 c 2.29209,0 3.96146,0.101122 5.44743,0.894099 1.42885,0.863249 2.32752,2.045859 2.32752,4.207123 -5.7e-4,3.023941 -2.01729,4.567047 -3.20905,5.040091 0,0 1.19176,-0.473044 0,0 l 0,0 0,0 z m 5.71938,-10.141313 15.11056,0 0,3.91804 -10.60178,0 0,3.444425 10.34298,0 0,3.865479 -10.34298,0 0,3.769499 10.60178,0.01714 0,3.93118 -15.11056,0 0,-18.945763 0,0 0,0 0,0 z m -30.546198,8.743319 -5.850779,0 0,-4.824708 5.90334,0 c 1.634516,0 2.769136,0.666147 2.769136,2.322944 0,1.638516 -1.08206,2.501764 -2.821697,2.501764 l 0,0 0,0 0,0 z m -10.360124,8.479374 -6.951122,-7.717247 6.951122,-7.472156 0,15.189403 0,0 0,0 0,0 z m -17.951113,-2.22525 -11.131392,0 0,-3.769499 9.939641,0 0,-3.865479 -9.939641,0 0,-3.444425 11.350775,0 4.95211,5.521134 -5.171493,5.558269 0,0 0,0 0,0 z M 87.71656,64.676627 c 0,5.262903 -3.92661,6.349533 -7.88407,6.349533 l -5.649107,0 0,6.354675 -8.799879,0 -5.574837,-6.271835 -5.793649,6.271835 -17.933402,0 0,-18.945763 18.209345,0 5.570266,6.210133 5.758799,-6.210133 14.466697,0 c 3.592965,0 7.629837,0.99465 7.629837,6.241555 0,0 0,-5.246905 0,0 l 0,0 0,0 z m 0,0" />
    </g>
  </g>
</svg>
